X:1
T:radetzky
T:radetzky
%%score 1 { 2 | 3 }
L:1/8
Q:1/4=180
M:4/4
K:D
V:1 treble-8 nm="Guitare classique" snm="Guit."
V:2 treble nm="Piano" snm="Pia."
V:3 bass 
V:1
"^\n" z2 z2 z4 | z8 | z8 |!mp! f4 =f4 | f z f=f ^f z"_cresc." f=f | f2 e2 d2 f=f | %6
 f z f=f ^f z f=f | f z b z a z af | g z b z a z ae | f z b z a z af | e z c' z d z b z | %11
 c z a^g aba=g | f z f=f ^f z f=f | f z e z d z f=f | f z f=f ^f z f=f | f z b z a z af | %16
 ^g z z2 z4 | z8 | z8 | d z d2 d2 dc!fine! | d z dc d z dc | d z g z B z dc | d z dc d z dc | %23
 d z f z A z aa | a8!D.C.! :| %25
V:2
!pp! dd d2 dd d2 | ^f2 e2 d3 c | B^ABc d2 e2 | A4 z4 | d4 a4 | f4 a4 | d4 a4 | f4 a4 | d4 a4 | %9
 f4 a4 | c4 ^g4 | A4 [CA]4 | d4 a4 | f4 a4 | d4 a4 | f4 a4 | ^g!fff! z f' z e'4 | z2 e'2 d'4 | %18
 c'3 b agfe | d2 dd d2 z2 | d2 d2 d2 d2 | d2 d2 G2 d2 | d2 dc d z dc | d z f z A z ff | f8 :| %25
V:3
 D,2 z z D,2 z2 | F,2 z2 F,2 z2 | z8 | A,2 z2 =F,2 z2 | D,2 A,2 F,2 A,2 | D,2 A,2 F,2 A,2 | %6
 D,2 A,2 F,2 A,2 | D,2 A,2 F,2 A,2 | C,2 A,2 G,2 A,2 | D,2 A,2 F,2 A,2 | E,2 E,2 ^G,2 G,2 | %11
 A,,2 z2 z4 | D,2 A,2 F,2 A,2 | D,2 A,2 F,2 A,2 | D,2 A,2 F,2 A,2 | D,2 A,2 F,2 A,2 | %16
 ^G,2 F,2 E,4 | z2 E,2 D,4 | C,2 z2 z4 | F,2 F,2 F,2 F,2 | D,8 | A,8 | F,8 | A,8 | D,8 :| %25

